X:493
T: MIR IST EIN FEINES MEIDELEIN
N: E0450A
O: Europa, Mitteleuropa, Deutschland
R: Liebes - Lied
M: 4/4
L: 1/8
K: G
G2 | G3GG2G2 | c3_BA2
G2 | _B2A2G2F2 | G4z2
G2 | G3GG2G2 | c3_BA2
G2 | _B2A2G2F2 | G4z2
G2 | A3_Bc2A2 | _B2c2d2
e2 | =f3ed2^c2 | d4z2
d2 | d2d2d2d2 | c3_BA2
G2 | _B2A2G2F2 | G6

